svgs/regular/moped.svg

<svg xmlns="http://www.w3.org/2000/svg" viewBox="0 0 640 512"><!--! Font Awesome Pro 6.3.0 by @fontawesome - https://fontawesome.com License - https://fontawesome.com/license (Commercial License) Copyright 2023 Fonticons, Inc. --><path d="M328 56c0-13.3 10.7-24 24-24h41.3c23.8 0 45.1 15.1 52.9 37.6l8.1 23.3 51-25.5c4.4-2.2 9.3-3.4 14.3-3.4H528c8.8 0 16 7.2 16 16v64c0 8.8-7.2 16-16 16h-8.4c-5 0-9.9-1.2-14.3-3.4l-34.9-17.5L500 224.4c4-.3 8-.4 12-.4c43.7 0 83.3 17.5 112.1 45.8c9.5 9.3 9.6 24.5 .3 33.9s-24.5 9.6-33.9 .3C570.2 284.2 542.6 272 512 272c-55.1 0-101 39.8-110.3 92.3c-2 11.5-12 19.8-23.6 19.8H336c-.9 0-1.7 0-2.6-.1H288 256c0 53-43 96-96 96s-96-43-96-96H32c-17.7 0-32-14.3-32-32V320c0-70.7 57.3-128 128-128h96c17.7 0 32 14.3 32 32v80c0 17.7 14.3 32 32 32h40 31.3c14.5-46 49.1-83.1 93.6-100.7L400.8 85.4c-1.1-3.2-4.2-5.4-7.6-5.4H352c-13.3 0-24-10.7-24-24zM120 112H232c13.3 0 24 10.7 24 24s-10.7 24-24 24H120c-13.3 0-24-10.7-24-24s10.7-24 24-24zm88 128H128c-44.2 0-80 35.8-80 80v16H214.7c-4.3-9.8-6.7-20.6-6.7-32V240zM160 432c26.5 0 48-21.5 48-48H112c0 26.5 21.5 48 48 48zm352 0a48 48 0 1 0 0-96 48 48 0 1 0 0 96zm0-144a96 96 0 1 1 0 192 96 96 0 1 1 0-192z"/></svg>

<svg xmlns="http://www.w3.org/2000/svg" viewBox="0 0 640 512"><!--! Font Awesome Pro 6.2.0 by @fontawesome - https://fontawesome.com License - https://fontawesome.com/license (Commercial License) Copyright 2022 Fonticons, Inc. --><path d="M328 56C328 42.75 338.7 32 352 32H393.3C417.1 32 438.3 47.09 446.1 69.6L454.2 92.88L505.2 67.38C509.7 65.16 514.6 64 519.6 64H528C536.8 64 544 71.16 544 80V144C544 152.8 536.8 160 528 160H519.6C514.6 160 509.7 158.8 505.2 156.6L470.3 139.2L500 224.4C503.1 224.1 507.1 224 512 224C555.7 224 595.3 241.5 624.1 269.8C633.6 279.1 633.7 294.3 624.4 303.8C615.1 313.2 599.9 313.4 590.5 304.1C570.2 284.2 542.6 272 512 272C459.3 272 414.1 308.5 403.1 357.6C401.1 366.1 400 374.9 400 384H256C256 437 213 480 160 480C106.1 480 64 437 64 384H32C14.33 384 0 369.7 0 352V320C0 249.3 57.31 192 128 192H224C241.7 192 256 206.3 256 224V304C256 321.7 270.3 336 288 336H359.3C373.8 289.1 408.5 252.9 452.9 235.3L400.8 85.37C399.7 82.16 396.7 80 393.3 80H352C338.7 80 328 69.26 328 56V56zM208 240H128C83.82 240 48 275.8 48 320V336H214.7C210.4 326.2 208 315.4 208 304V240zM208 384H112C112 410.5 133.5 432 160 432C186.5 432 208 410.5 208 384zM232 112C245.3 112 256 122.7 256 136C256 149.3 245.3 160 232 160H120C106.7 160 96 149.3 96 136C96 122.7 106.7 112 120 112H232zM416 384C416 330.1 458.1 288 512 288C565 288 608 330.1 608 384C608 437 565 480 512 480C458.1 480 416 437 416 384zM512 432C538.5 432 560 410.5 560 384C560 357.5 538.5 336 512 336C485.5 336 464 357.5 464 384C464 410.5 485.5 432 512 432z"/></svg>
